!!!OTL: Der undankbare Sohn Ein altes Sprichwort wirdt gemeldt:
!!!ARE: Europa, Mitteleuropa, Deutschland
!!!YOR: 5, S. 334
!!    1893  gedruckt in Guetersloh (16. Jh.)
!!!SCT: Q0123
!!!YEM: Copyright 1995, estate of Helmut Schaffrath.
**kern
*ICvox
*Ivox
!! Irregular meter.
*MX
*k[b-e-]
*g:
{8g
=1
4g
4g
4dd
4dd
=2
4dd
4b-
4a
8r}
{8a
=3
4cc
4cc
4cc
4cc
=4
8b-
8dd
8cc
8b-
4a
8r}
{8cc
=5
4b-
8b-
4cc
8b-
=6
4a
4g
8r}
{8g
=7
4a
4b-
4cc
4cc
=8
8b-
8dd
8cc
8b-
4a
8r}
{8g
=9
4b-
8b-
4cc
8b-
=10
4a
1g}
==
!!!AGN: Ballade, Moral, Respekt vor dem Alter; Zeitungs - Lied
!! Tonangabe zur Ballade: Lindenschmidt - Ton
!!!ONB: ESAC (Essen Associative Code) Database: BALLADE
!!!AMT: irregular
!!!AIN: vox
!!!EED: Helmut Schaffrath
!!!EEV: 1.0
*-
